!!! Genre: Bach WTC1 Prelude 15
!!! Title: Prelude 15
!!! Number: 2
!!! Level: 2
**kern	**kern
*clefF4	*clefG2
*k[f#]	*k[f#]
*met(c)	*met(c)
*G:	*G:
*Xtuplet	*Xtuplet
=5	=5
24D\LL	8f#/L
24c#\	.
24d\JJ	.
24E\LL	8g/J
24c#\	.
24d\JJ	.
24F#\LL	8a/L
24c#\	.
24d\JJ	.
24G\LL	8b/J
24c#\	.
24d\JJ	.
24F#\LL	8a/L
24c#\	.
24d\JJ	.
24E\LL	8g/J
24c#\	.
24d\JJ	.
24D\LL	8f#/L
24c#\	.
24d\JJ	.
24F#\LL	8a/J
24c#\	.
24d\JJ	.
=6	=6
8BB\L	24g#\LL
.	24b\
.	24dd\JJ
8B\J	24ffn\LL
.	24dd\
.	24b\JJ
8r	24dd\LL
.	24b\
.	24g#\JJ
8A\	24b/LL
.	24g#/
.	24e/JJ
8G#/L	24d/LL
.	24fn/
.	24g#/JJ
8GG#/J	24b/LL
.	24g#/
.	24f/JJ
8r	24g#/LL
.	24f/
.	24d/JJ
8G#\	24f/LL
.	24d/
.	24B/JJ
=7	=7
24A\LL	8c/L
24c\	.
24e\JJ	.
24a\LL	8ee/J
24e\	.
24c\JJ	.
24e\LL	8cc\L
24c\	.
24A\JJ	.
24c\LL	8a\J
24A\	.
24E\JJ	.
24C\LL	8e\L
24E\	.
24A\JJ	.
24c\LL	8ee\J
24A\	.
24E\JJ	.
24A\LL	8cc\L
24E\	.
24C\JJ	.
24E/LL	8a\J
24C/	.
24AA/JJ	.
=8	=8
8FF#/L	24dd#\LL
.	24ff#\
.	24aa\JJ
8F#/J	24ccc\LL
.	24aa\
.	24ff#\JJ
8r	24aa\LL
.	24ff#\
.	24dd#\JJ
8E\	24ff#\LL
.	24dd#\
.	24b\JJ
8D#/L	24a\LL
.	24ccn\
.	24dd#\JJ
8DD#/J	24ff#\LL
.	24dd#\
.	24cc\JJ
8r	24dd#\LL
.	24cc\
.	24a\JJ
8D#\	24cc/LL
.	24a/
.	24f#/JJ
=9	=9
24E\LL	8g/L
24d#\	.
24e\JJ	.
24F#\LL	8a/J
24d#\	.
24e\JJ	.
24G\LL	8b/L
24d#\	.
24e\JJ	.
24A\LL	8cc/J
24d#\	.
24e\JJ	.
24G\LL	8b/L
24d#\	.
24e\JJ	.
24F#\LL	8a/J
24d#\	.
24e\JJ	.
24E\LL	8g/L
24d#\	.
24e\JJ	.
24G\LL	8b/J
24d#\	.
24e\JJ	.
=10	=10
8C#/L	24a/LL
.	24g#/
.	24a/JJ
8D/J	24b/LL
.	24g#/
.	24a/JJ
8E\L	24cc#/LL
.	24g#/
.	24a/JJ
8F#\J	24dd/LL
.	24g#/
.	24a/JJ
8C#/L	24ee/LL
.	24g#/
.	24a/JJ
8BB/J	24ff#/LL
.	24g#/
.	24a/JJ
8AA/L	24ggn\LL
.	24ee\
.	24cc#\JJ
8C#/J	24a\LL
.	24cc#\
.	24ee\JJ
=11	=11
2D\LL	2ff#\
=||	=||
*-	*-
